X: 11815
T: La GRENOUILLE
R: Waltz.
%R: waltz
B: W. Hamilton "Universal Tune-Book" Vol. 1 Glasgow 1844 p.181 #5
S: http://imslp.org/wiki/Hamilton's_Universal_Tune-Book_(Various)
Z: 2016 John Chambers <jc:trillian.mit.edu>
N: There's a begin-repeat symbol but no end-repeat symbol anywhere; not fixed.
N: The rhythms at the strain boundaries are all wrong; not fixed.
M: 3/4
L: 1/8
K: G
% - - - - - - - - - - - - - - - - - - - - - - - - -
D |:\
G2GFGA | G2e2d2 | d2cBcA | GBADEF |\
G2cBAB | c2E2F2 | GBAgfe | ^c2d2d2 |\
g2z2g2 | agfed2 | e2z2e2 | gdcBAB |
c2z2e2 | d^cdB=cA | G2BGAF | G3- "Fin."G2 H|]\
G2 |\
c2G2c2 | e2gfag | =f2d2B2 | c2BGAB |\
c2z2 (3(Bcd) | c2z2 (3(=fga) | g2^f2a2 | gedcB"^D.C."A |]
% - - - - - - - - - - - - - - - - - - - - - - - - -

%%sep 1 1 500
%%sep 1 1 500

